X: 1
T: Paddy Noonan's
M: 4/4
L: 1/8
R: hornpipe
K: Gmaj
|:GBdG FGAF|GBdB cdef|gdBd ecAG|FGAF D2 EF|
GBdG FGAF|GBdB cdef|g2 dg ecAF|1 GBAF G3 D:|2 GBAF G2 Bc||
|:d2 ef gdBG|FGAB cdef|gdBd ecAG|FGAF D2 Bc|
[1 d2 ef gdBG|FGAB cdef|(3gbg dg ecAF|GBAF G2 Bc:|
[2GBdG FGAF|GBdB cdef|g2 dg ecAF|GBAF G4||
